X:1
T:Hares on the Mountain
M:3/4
L:1/4
K:Eb
 z2 B,| E/2 E3/2 E| E2 E| E G B| c B G| F/2 F3/2 F| F- D B,| E G B|\
 c B B| c c e/2d/2| c B B| F G A| c B G/2F/2| EF/2-E/2 D/2C/2|C/2-B,/2 B, B,/2B,/2|\
 E G F/2D/2| E2 z|
